src/lib/assets/images/svgs/logo-min.svg

<?xml version="1.0" encoding="UTF-8"?>
<svg xmlns="http://www.w3.org/2000/svg" xmlns:xlink="http://www.w3.org/1999/xlink" width="120px" height="20px" viewBox="0 0 119 20" version="1.1">
<g id="surface1">
<path style=" stroke:none;fill-rule:nonzero;fill:rgb(11.372549%,14.117647%,17.647059%);fill-opacity:1;" d="M 17.304688 19.671875 L 12.773438 19.671875 L 4.59375 8.5 L 4.59375 19.671875 L 0.0234375 19.671875 L 0.0234375 0.375 L 4.246094 0.375 L 17.304688 18.070312 Z M 17.304688 19.671875 "/>
<path style=" stroke:none;fill-rule:nonzero;fill:rgb(87.45098%,70.588235%,30.980392%);fill-opacity:1;" d="M 12.734375 0.375 L 17.304688 0.375 L 17.304688 8.074219 L 12.734375 8.074219 Z M 12.734375 0.375 "/>
<path style=" stroke:none;fill-rule:nonzero;fill:rgb(11.372549%,14.117647%,17.647059%);fill-opacity:1;" d="M 40.160156 9.996094 C 40.160156 15.511719 35.707031 19.992188 30.1875 19.992188 C 24.671875 19.992188 20.195312 15.511719 20.195312 9.996094 C 20.195312 4.476562 24.671875 0 30.1875 0 C 35.707031 0 40.160156 4.457031 40.160156 9.996094 Z M 35.570312 9.976562 C 35.570312 7.003906 33.160156 4.589844 30.1875 4.589844 C 27.21875 4.589844 24.804688 7.003906 24.804688 9.976562 C 24.804688 12.945312 27.21875 15.359375 30.1875 15.359375 C 33.160156 15.359375 35.570312 12.949219 35.570312 9.976562 Z M 35.570312 9.976562 "/>
<path style=" stroke:none;fill-rule:nonzero;fill:rgb(11.372549%,14.117647%,17.647059%);fill-opacity:1;" d="M 59.191406 13.804688 C 59.191406 17.335938 56.683594 20 51.476562 20 C 47.773438 20 45.1875 18.726562 43.027344 16.546875 L 45.496094 13.074219 L 45.882812 13.476562 C 46.769531 14.402344 48.699219 15.949219 51.6875 15.949219 C 53.695312 15.949219 54.582031 15.097656 54.582031 14.269531 C 54.582031 13.246094 52.882812 12.839844 50.917969 12.378906 C 47.847656 11.644531 44.105469 10.660156 43.933594 6.261719 L 43.933594 5.738281 C 44.03125 2.59375 46.789062 0.0273438 51.246094 0.0273438 C 54.3125 0.0273438 56.972656 0.953125 59.113281 3.019531 L 56.53125 6.414062 L 56.164062 6.066406 C 54.792969 4.8125 52.863281 4.082031 50.859375 4.082031 C 49.429688 4.082031 48.582031 4.621094 48.582031 5.546875 C 48.582031 6.394531 50.183594 6.78125 52.035156 7.226562 C 55.179688 7.976562 59.019531 9 59.191406 13.4375 Z M 59.191406 13.804688 "/>
<path style=" stroke:none;fill-rule:nonzero;fill:rgb(11.372549%,14.117647%,17.647059%);fill-opacity:1;" d="M 77.464844 0.375 L 77.464844 4.445312 L 72.082031 4.445312 L 72.082031 19.671875 L 67.492188 19.671875 L 67.492188 4.445312 L 62.070312 4.445312 L 62.070312 0.375 Z M 77.464844 0.375 "/>
<path style=" stroke:none;fill-rule:nonzero;fill:rgb(11.372549%,14.117647%,17.647059%);fill-opacity:1;" d="M 96.003906 19.664062 L 90.757812 19.664062 L 87.226562 13.273438 L 84.953125 13.273438 L 84.953125 19.644531 L 80.378906 19.644531 L 80.378906 0.347656 L 89.40625 0.347656 C 93.417969 0.347656 95.890625 2.992188 95.890625 6.578125 C 95.890625 9.996094 93.75 11.828125 91.664062 12.308594 Z M 84.953125 8.722656 L 88.789062 8.722656 C 90.257812 8.722656 91.222656 7.871094 91.222656 6.578125 C 91.222656 5.285156 90.277344 4.4375 88.789062 4.4375 L 84.953125 4.4375 Z M 84.953125 8.722656 "/>
<path style=" stroke:none;fill-rule:nonzero;fill:rgb(11.372549%,14.117647%,17.647059%);fill-opacity:1;" d="M 111.53125 0.375 L 106.378906 0.375 L 98.914062 19.671875 L 104.105469 19.671875 L 108.964844 5.835938 L 111.394531 12.785156 L 113.808594 19.671875 L 118.976562 19.671875 Z M 111.53125 0.375 "/>
<path style=" stroke:none;fill-rule:nonzero;fill:rgb(87.45098%,70.588235%,30.980392%);fill-opacity:1;" d="M 108.960938 19.671875 L 105.894531 14.925781 L 111.996094 14.925781 Z M 108.960938 19.671875 "/>
</g>
</svg>

<svg xmlns="http://www.w3.org/2000/svg" width="120" height="20" viewBox="0 0 119 20"><path d="M17.305 19.672h-4.532L4.593 8.5v11.172H.024V.375h4.223L17.305 18.07Zm0 0" style="stroke:none;fill-rule:nonzero;fill:#1d242d;fill-opacity:1"/><path d="M12.734.375h4.57v7.7h-4.57Zm0 0" style="stroke:none;fill-rule:nonzero;fill:#dfb44f;fill-opacity:1"/><path d="M40.16 9.996c0 5.516-4.453 9.996-9.972 9.996-5.516 0-9.993-4.48-9.993-9.996 0-5.52 4.477-9.996 9.992-9.996 5.52 0 9.973 4.457 9.973 9.996Zm-4.59-.02a5.386 5.386 0 0 0-5.383-5.386 5.389 5.389 0 0 0-5.382 5.387 5.383 5.383 0 0 0 10.766 0ZM59.191 13.805c0 3.53-2.507 6.195-7.714 6.195-3.704 0-6.29-1.273-8.45-3.453l2.47-3.473.386.403c.887.925 2.816 2.472 5.804 2.472 2.008 0 2.895-.851 2.895-1.68 0-1.023-1.7-1.43-3.664-1.89-3.07-.734-6.813-1.719-6.984-6.117v-.524c.097-3.144 2.855-5.71 7.312-5.71 3.066 0 5.727.925 7.867 2.992l-2.582 3.394-.367-.348c-1.371-1.253-3.3-1.984-5.305-1.984-1.43 0-2.277.54-2.277 1.465 0 .848 1.602 1.234 3.453 1.68 3.145.75 6.985 1.773 7.156 6.21ZM77.465.375v4.07h-5.383v15.227h-4.59V4.445H62.07V.375ZM96.004 19.664h-5.246l-3.531-6.39h-2.274v6.37H80.38V.349h9.027c4.012 0 6.485 2.644 6.485 6.23 0 3.418-2.141 5.25-4.227 5.73ZM84.954 8.723h3.835c1.469 0 2.434-.852 2.434-2.145 0-1.293-.946-2.14-2.434-2.14h-3.836ZM111.531.375h-5.152l-7.465 19.297h5.191l4.86-13.836 2.43 6.95 2.414 6.886h5.168Zm0 0" style="stroke:none;fill-rule:nonzero;fill:#1d242d;fill-opacity:1"/><path d="m108.96 19.672-3.065-4.746h6.101Zm0 0" style="stroke:none;fill-rule:nonzero;fill:#dfb44f;fill-opacity:1"/></svg>
